styles/3/Numix/64/places/green-folder-documents.svg

<!-- Created with Inkscape (http://www.inkscape.org/) -->
<svg xmlns="http://www.w3.org/2000/svg" viewBox="0 0 64 64">
 <g transform="translate(0,-988.3622)">
  <rect width="52" height="20" x="6" y="1000.36" style="fill:#388e3c;fill-opacity:1;stroke:none"/>
  <path d="m 12 1000.36 c 0 -2 0 -4 2.909 -4 l 10.182 0 c 2.909 0 2.909 2 2.909 4 l 0 2 -16 0 z" style="fill:#388e3c;fill-opacity:1;stroke:none"/>
  <path d="m 10 1004.36 44 0 0 9.935 -44 0 z" style="fill:#95989f;fill-opacity:1;stroke:none"/>
  <rect y="1002.36" x="14" height="26" width="38" style="fill:#d8d8da;fill-opacity:1;stroke:none"/>
  <rect width="38" height="26" x="12" y="1006.36" style="fill:#f9f9f9;fill-opacity:1;stroke:none"/>
  <path d="m 2 1008.36 60 0 -4.286 36 -51.43 0 z" style="fill:#66bb6a;fill-opacity:1;stroke:none"/>
  <path d="m 24 24 c -2.216 0 -4 1.784 -4 4 l 0 20 c 0 2.216 1.784 4 4 4 l 16 0 c 2.216 0 4 -1.784 4 -4 l 0 -14 l -10 -10 l -10 0 z m 0 4 l 10 0 l 0 6 l 6 0 l 0 14 l -16 0 l 0 -20 z m 2.5 8 c -0.277 0 -0.5 0.223 -0.5 0.5 l 0 1 c 0 0.277 0.223 0.5 0.5 0.5 l 7 0 c 0.277 0 0.5 -0.223 0.5 -0.5 l 0 -1 c 0 -0.277 -0.223 -0.5 -0.5 -0.5 l -7 0 z m 0 4 c -0.277 0 -0.5 0.223 -0.5 0.5 l 0 1 c 0 0.277 0.223 0.5 0.5 0.5 l 11 0 c 0.277 0 0.5 -0.223 0.5 -0.5 l 0 -1 c 0 -0.277 -0.223 -0.5 -0.5 -0.5 l -11 0 z m 0 4 c -0.277 0 -0.5 0.223 -0.5 0.5 l 0 1 c 0 0.277 0.223 0.5 0.5 0.5 l 11 0 c 0.277 0 0.5 -0.223 0.5 -0.5 l 0 -1 c 0 -0.277 -0.223 -0.5 -0.5 -0.5 l -11 0 z" transform="translate(0,988.3622)" style="fill:#103612;opacity:0.4;fill-opacity:1;stroke:none"/>
 </g>
</svg>

<?xml version="1.0" encoding="UTF-8" standalone="no"?>
<!-- Created with Inkscape (http://www.inkscape.org/) -->

<svg
   xmlns:dc="http://purl.org/dc/elements/1.1/"
   xmlns:cc="http://creativecommons.org/ns#"
   xmlns:rdf="http://www.w3.org/1999/02/22-rdf-syntax-ns#"
   xmlns:svg="http://www.w3.org/2000/svg"
   xmlns="http://www.w3.org/2000/svg"
   xmlns:sodipodi="http://sodipodi.sourceforge.net/DTD/sodipodi-0.dtd"
   xmlns:inkscape="http://www.inkscape.org/namespaces/inkscape"
   width="64"
   height="64"
   id="svg2"
   version="1.1"
   inkscape:version="0.91 r"
   sodipodi:docname="green-folder-documents.svg"
   inkscape:export-filename="/media/Data/Main/Visuals/Icons/Numix/Desktop/repos/numix-wiki/Gjorgi/Numix-folders/48/New/folder-144.png"
   inkscape:export-xdpi="270"
   inkscape:export-ydpi="270">
  <defs
     id="defs4" />
  <sodipodi:namedview
     id="base"
     pagecolor="#ffffff"
     bordercolor="#666666"
     borderopacity="1.0"
     inkscape:pageopacity="0.0"
     inkscape:pageshadow="2"
     inkscape:zoom="7.4595434"
     inkscape:cx="17.585261"
     inkscape:cy="19.459121"
     inkscape:document-units="px"
     inkscape:current-layer="layer1"
     showgrid="true"
     inkscape:window-width="1280"
     inkscape:window-height="998"
     inkscape:window-x="0"
     inkscape:window-y="0"
     inkscape:window-maximized="1"
     showguides="true"
     inkscape:guide-bbox="true">
    <inkscape:grid
       type="xygrid"
       id="grid2985"
       empspacing="5"
       visible="true"
       enabled="true"
       snapvisiblegridlinesonly="true" />
  </sodipodi:namedview>
  <metadata
     id="metadata7">
    <rdf:RDF>
      <cc:Work
         rdf:about="">
        <dc:format>image/svg+xml</dc:format>
        <dc:type
           rdf:resource="http://purl.org/dc/dcmitype/StillImage" />
        <dc:title />
      </cc:Work>
    </rdf:RDF>
  </metadata>
  <g
     inkscape:label="Layer 1"
     inkscape:groupmode="layer"
     id="layer1"
     transform="translate(0,-988.3622)">
    <rect
       style="fill:#388e3c;fill-opacity:1;stroke:none"
       id="rect3757"
       width="52"
       height="20"
       x="6"
       y="1000.3622" />
    <path
       style="fill:#388e3c;fill-opacity:1;stroke:none"
       d="m 12,1000.3622 c 0,-2 0,-4 2.909091,-4 l 10.181819,0 c 2.90909,0 2.90909,2 2.90909,4 l 0,2 -16,0 z"
       id="path3759"
       inkscape:connector-curvature="0"
       sodipodi:nodetypes="ccccccc" />
    <path
       style="fill:#95989f;fill-opacity:1;stroke:none"
       d="m 10,1004.3622 44,0 0,9.9354 -44,0 z"
       id="path3765"
       inkscape:connector-curvature="0" />
    <rect
       y="1002.3622"
       x="14"
       height="25.999954"
       width="38"
       id="rect3763"
       style="fill:#d8d8da;fill-opacity:1;stroke:none" />
    <rect
       style="fill:#f9f9f9;fill-opacity:1;stroke:none"
       id="rect3761"
       width="38"
       height="25.999954"
       x="12"
       y="1006.3622" />
    <path
       style="fill:#66bb6a;fill-opacity:1;stroke:none"
       d="m 2,1008.3622 60,0 -4.285714,36 -51.428572,0 z"
       id="path2987"
       inkscape:connector-curvature="0"
       sodipodi:nodetypes="ccccc" />
    <path
       style="opacity:0.4;fill:#103612;fill-opacity:1;stroke:none"
       d="M 24 24 C 21.784 24 20 25.784 20 28 L 20 48 C 20 50.216 21.784 52 24 52 L 40 52 C 42.216 52 44 50.216 44 48 L 44 34 L 34 24 L 24 24 z M 24 28 L 34 28 L 34 34 L 40 34 L 40 48 L 24 48 L 24 28 z M 26.5 36 C 26.223 36 26 36.223 26 36.5 L 26 37.5 C 26 37.777 26.223 38 26.5 38 L 33.5 38 C 33.777 38 34 37.777 34 37.5 L 34 36.5 C 34 36.223 33.777 36 33.5 36 L 26.5 36 z M 26.5 40 C 26.223 40 26 40.223 26 40.5 L 26 41.5 C 26 41.777 26.223 42 26.5 42 L 37.5 42 C 37.777 42 38 41.777 38 41.5 L 38 40.5 C 38 40.223 37.777 40 37.5 40 L 26.5 40 z M 26.5 44 C 26.223 44 26 44.223 26 44.5 L 26 45.5 C 26 45.777 26.223 46 26.5 46 L 37.5 46 C 37.777 46 38 45.777 38 45.5 L 38 44.5 C 38 44.223 37.777 44 37.5 44 L 26.5 44 z "
       transform="translate(0,988.3622)"
       id="rect2991-3" />
  </g>
</svg>
